X: 13839
T: Four Six, The
R: jig
M: 6/8
K: Gmajor
BGE DBD|~G3 Bcd|c2A AGA|fed ^cd=c|
BGE D2D|~G3 Bcd|cea Bdg|AGF G2A:|
|:B2g dBg|BgB dBg|c2a eca|cac eca|
B2g dBg|BgB dBg|cea Bdg|1 Aag fed:|2 AGF G2A||

